X:1
T:title
M:4/4
Q:120
L:1/8
R:Reel
K:C
 ^g'3 ^G4G |  ^c'3 ^g'4 ^d | g4 _g'2 ^e2 | E3 ^a2 ^c'3 | a _b'3 _a3 ^E |  _g'4 _d ^D3 |  ^e'4 _g'3 _a' | g'4 _C4 | 